X: 1
T:Gan Ainm
R:jig
M:6/8
L:1/8
K:Amix
A2e cAA|~A3 dBG|A2e cee|g2e dBG|!
A2e cAA|~A3 dBG|ABc def|g2e dBG:|!
|:A2a gAf|AeA dBG|A2a gef|~g3 dBG|!
A2a gAf|AeA dBG|ABc def|g2e dBG:|!
